svg/color/orclon.svg

<svg width="40" height="40" viewBox="0 0 40 40" fill="none" xmlns="http://www.w3.org/2000/svg">
<g clip-path="url(#clip0_820_3802)">
<path d="M20 0C31.0457 0 40 8.9543 40 20C40 31.0457 31.0457 40 20 40C8.95431 40 7.90517e-06 31.0457 0 20C6.58765e-07 8.95431 8.95431 1.97595e-06 20 0Z" fill="#FBD1D3"/>
<path d="M26 6C30.4183 6 34 9.58172 34 14V26C34 30.4183 30.4183 34 26 34H14C9.58172 34 6 30.4183 6 26V14C6 9.58172 9.58172 6 14 6H26Z" fill="#EA1B22"/>
<path fill-rule="evenodd" clip-rule="evenodd" d="M10.125 20C10.125 23.4512 12.9213 26.25 16.3713 26.25H23.6288C25.2858 26.2493 26.8747 25.5905 28.0461 24.4185C29.2175 23.2464 29.8753 21.6571 29.875 20C29.875 16.5488 27.0788 13.75 23.6288 13.75H16.3713C14.7142 13.7507 13.1253 14.4095 11.9539 15.5815C10.7825 16.7536 10.1247 18.3429 10.125 20ZM27.5138 20C27.5141 20.5311 27.4098 21.0571 27.2068 21.548C27.0038 22.0388 26.7061 22.4848 26.3307 22.8605C25.9553 23.2363 25.5095 23.5344 25.0189 23.7378C24.5283 23.9413 24.0024 24.0461 23.4713 24.0463H16.5338C16.0024 24.0464 15.4762 23.9419 14.9853 23.7386C14.4944 23.5353 14.0484 23.2372 13.6727 22.8614C13.297 22.4856 12.9991 22.0395 12.796 21.5485C12.5928 21.0576 12.4884 20.5313 12.4888 20C12.4886 19.469 12.593 18.9431 12.7961 18.4524C12.9991 17.9618 13.2969 17.5159 13.6723 17.1403C14.0476 16.7647 14.4933 16.4667 14.9839 16.2633C15.4744 16.0599 16.0002 15.9552 16.5312 15.955H23.47C24.0011 15.955 24.5271 16.0596 25.0178 16.2629C25.5085 16.4662 25.9543 16.7642 26.3298 17.1398C26.7053 17.5155 27.0032 17.9614 27.2063 18.4521C27.4094 18.9429 27.5139 19.4689 27.5138 20Z" fill="white"/>
</g>
<defs>
<clipPath id="clip0_820_3802">
<rect width="40" height="40" fill="white"/>
</clipPath>
</defs>
</svg>

<svg xmlns="http://www.w3.org/2000/svg" width="40" height="40" fill="none" viewBox="0 0 40 40"><g clip-path="url(#orclon_svg-a)"><path fill="#FBD1D3" d="M20 0c11.046 0 20 8.954 20 20s-8.954 20-20 20S0 31.046 0 20 8.954 0 20 0"/><path fill="#EA1B22" d="M26 6a8 8 0 0 1 8 8v12a8 8 0 0 1-8 8H14a8 8 0 0 1-8-8V14a8 8 0 0 1 8-8z"/><path fill="#fff" fill-rule="evenodd" d="M10.125 20a6.25 6.25 0 0 0 6.246 6.25h7.258A6.25 6.25 0 0 0 29.875 20a6.25 6.25 0 0 0-6.246-6.25H16.37A6.25 6.25 0 0 0 10.125 20m17.389 0a4.045 4.045 0 0 1-4.043 4.046h-6.937a4.045 4.045 0 0 1-.003-8.091h6.939A4.044 4.044 0 0 1 27.514 20" clip-rule="evenodd"/></g><defs><clipPath id="orclon_svg-a"><path fill="#fff" d="M0 0h40v40H0z"/></clipPath></defs></svg>
